X:59
T:Dusty Miller. BC.59
M:6/8
L:1/8
Q:100
S:Benjamin Cooke MS.circa 1770, F.Kidson Coll.
R:Misc.
O:England
A:x
Z:vmp.John Bagnall
K:G
"Usually in 3/4"B>cd BAG |  F TA2 cBA | B>cd BAG | DG2 BAG :|
|:B>cd efg | aB2 cBA | B>cd e<f "*"e/f/ | g>ag BAG :|]
%demisemiquavers in MS
